X: 09273
T: SIR GILBERT GO SOFTLY
B: Button & Whitaker "Button and Whitaker's Selection of Dances, Reels and Waltzes" v.9 p.27 #3
S: http://imslp.org/wiki/Button_and_Whitaker%27s_Selection_of_Dances,_Reels_and_Waltzes_(Various)
Z: 2014 John Chambers <jc:trillian.mit.edu>
M: 2/4
L: 1/16
K: F
% - - - - - - - - - - - - - - - - - - - - - - - - -
% Original staff layout preserved:
V: 1 clef=treble middle=B
|:\
A>Bc>d c>Af2 | e>fg>f e>dc>B |\
A>Bc>d c>A f2 | d>ge>c [f4A4] :|
|:\
c>=Bc>B c>eg>f | e>dc>d c>_BA>G |\
A>GA>B c>fe>f | d>ge>c [f4A4] :|
% - - - - - - - - - - - - - - - - - - - - - - - - -
% Original staff layout preserved:
V: 2 clef=bass middle=d
|:\
F2f2F2f2 | C2c2C2c2 |\
F2f2F2f2 | B2c2 f2F2 :|
|:\
c'2c2c'2=b2 | c'2g2c2z2 |\
F,2F2A,2A2 | B2c2 f2F2 :|
% - - - - - - - - - - - - - - - - - - - - - - - - -
%%begintext align
%% Cast off 1 Cu: up again,
%% down the mid: up again,
%% Allemande.
%%endtext
% - - - - - - - - - - - - - - - - - - - - - - - - -
%%sep 2 5 100

%%sep 1 1 500
%%sep 1 1 500
